X:345
T: DIE BLAUE FLAGGE
N: E1497
O: Europa, Mitteleuropa, Deutschland, Schleswig
R: Staende -, Seemanns - Lied, Tanz
M: 3/4
L: 1/16
K: G
G3F | G4D4G3A | _B4=F4
B2c2 | d4d2c2_e2d2 | d4_B4
c2d2 | _e2d2c2_B2A2G2 | F2A2D4
E2F2 | G2A2_B2c2d2F2 | G4z4
_B2c2 | d4d2c2_e2d2 | d4_B4
_e2d2 | d2c2c2_B2A2G2 | F2A2D4z4 |
G2F2G2_B2A2F2 | G6
_B2A2c2 | _B2d2c2_e2d2F2 | G4z4

@@@ Tune index: 5029
